icons/evolvere-blue-folders-flat-vivid-dark-fallback/apps/64/devhelp.svg

<?xml version="1.0" encoding="UTF-8" standalone="no"?>
<!-- Created with Inkscape (http://www.inkscape.org/) -->

<svg
   xmlns:dc="http://purl.org/dc/elements/1.1/"
   xmlns:cc="http://creativecommons.org/ns#"
   xmlns:rdf="http://www.w3.org/1999/02/22-rdf-syntax-ns#"
   xmlns:svg="http://www.w3.org/2000/svg"
   xmlns="http://www.w3.org/2000/svg"
   xmlns:sodipodi="http://sodipodi.sourceforge.net/DTD/sodipodi-0.dtd"
   xmlns:inkscape="http://www.inkscape.org/namespaces/inkscape"
   width="64"
   height="64"
   id="svg13094"
   version="1.1"
   inkscape:version="0.91+devel r"
   sodipodi:docname="devhelp.svg">
  <sodipodi:namedview
     id="base"
     pagecolor="#ffffff"
     bordercolor="#666666"
     borderopacity="1.0"
     inkscape:pageopacity="0"
     inkscape:pageshadow="2"
     inkscape:zoom="11.313708"
     inkscape:cx="35.944791"
     inkscape:cy="30.901415"
     inkscape:document-units="px"
     inkscape:current-layer="svg13094"
     showgrid="true"
     inkscape:snap-bbox="true"
     inkscape:bbox-paths="true"
     inkscape:bbox-nodes="true"
     inkscape:snap-bbox-edge-midpoints="true"
     inkscape:snap-bbox-midpoints="true"
     inkscape:object-paths="true"
     inkscape:snap-intersection-paths="true"
     inkscape:object-nodes="true"
     inkscape:snap-smooth-nodes="true"
     inkscape:snap-midpoints="true"
     inkscape:snap-object-midpoints="true"
     inkscape:snap-center="true"
     showguides="true"
     inkscape:guide-bbox="true"
     inkscape:window-width="1920"
     inkscape:window-height="1023"
     inkscape:window-x="-10"
     inkscape:window-y="35"
     inkscape:window-maximized="1"
     inkscape:snap-global="true"
     fit-margin-top="0"
     fit-margin-left="0"
     fit-margin-right="0"
     fit-margin-bottom="0"
     showborder="true"
     inkscape:showpageshadow="false"
     inkscape:snap-page="true">
    <inkscape:grid
       type="xygrid"
       id="grid3075"
       empspacing="5"
       visible="true"
       enabled="true"
       snapvisiblegridlinesonly="true"
       originx="1.6362304e-08px"
       originy="18px" />
  </sodipodi:namedview>
  <defs
     id="defs13096" />
  <metadata
     id="metadata13099">
    <rdf:RDF>
      <cc:Work
         rdf:about="">
        <dc:format>image/svg+xml</dc:format>
        <dc:type
           rdf:resource="http://purl.org/dc/dcmitype/StillImage" />
        <dc:title></dc:title>
      </cc:Work>
    </rdf:RDF>
  </metadata>
  <path
     style="color:#000000;fill:#c33329;fill-opacity:1;fill-rule:nonzero;stroke:none;stroke-width:2.28571415;marker:none;visibility:visible;display:inline;overflow:visible;enable-background:accumulate"
     d="m 0,8 0,26 0,28 2,2 58,0 2,-2 0,-12 0,-14 0,-14 2,0 0,-14 -32,0 z"
     id="path3009"
     inkscape:connector-curvature="0"
     sodipodi:nodetypes="ccccccccccccc" />
  <path
     sodipodi:nodetypes="ccccccccc"
     id="path3016"
     d="M 2,0 0,1 0,8 32,8 64,8 64,1 62,0 32,0 z"
     style="color:#000000;fill:#ff7153;fill-opacity:1;fill-rule:nonzero;stroke:none;stroke-width:2.28571415000000000;marker:none;visibility:visible;display:inline;overflow:visible;enable-background:accumulate"
     inkscape:connector-curvature="0" />
  <path
     style="color:#000000;fill:#a73434;fill-opacity:1;fill-rule:nonzero;stroke:none;stroke-width:2.28571415;marker:none;visibility:visible;display:inline;overflow:visible;enable-background:accumulate"
     d="M 3 2 L 3 4 L 61 4 L 61 6 L 64 6 L 64 4 L 64 2 L 3 2 z "
     id="rect3178" />
  <text
     xml:space="preserve"
     style="font-size:41.93856812px;font-style:normal;font-variant:normal;font-weight:bold;font-stretch:normal;line-height:125%;letter-spacing:0px;word-spacing:0px;fill:#ffffff;fill-opacity:0.8899821;stroke:none;font-family:Oxygen;-inkscape-font-specification:Oxygen Bold;"
     x="19.883959"
     y="50"
     id="text3909"
     sodipodi:linespacing="125%"><tspan
       sodipodi:role="line"
       id="tspan3911"
       x="19.883959"
       y="50">D</tspan></text>
  <path
     d="M 64,10 62,8 64,7 z"
     id="path3028"
     style="fill:#e0523f;fill-opacity:1"
     inkscape:connector-curvature="0"
     sodipodi:nodetypes="cccc" />
  <g
     id="g3043"
     inkscape:export-filename="folder.png"
     inkscape:export-xdpi="90"
     inkscape:export-ydpi="90"
     transform="translate(-0.62500009,0.082283)" />
  <g
     id="scalable"
     transform="matrix(1.0385892,0,0,1.0385892,1214.7222,1878.8121)"
     inkscape:label="#g3701"
     style="fill:#ffffff" />
  <path
     style="color:#000000;fill:#550b1b;fill-opacity:0.56541216;fill-rule:nonzero;stroke:none;stroke-width:1;marker:none;visibility:visible;display:inline;overflow:visible;enable-background:accumulate"
     d="M 2.5,0 0,1 0,3.34375 0,8 0,34 0,62 2.5,64 12,64 12,8 12,0 z"
     id="rect3007"
     inkscape:connector-curvature="0"
     sodipodi:nodetypes="ccccccccccc" />
  <path
     id="path3952"
     d="M 3,4 61,4 61,6 3,6 z"
     style="color:#000000;fill:#f8e9e8;fill-opacity:1;fill-rule:nonzero;stroke:none;stroke-width:1;marker:none;visibility:visible;display:inline;overflow:visible;enable-background:accumulate"
     inkscape:connector-curvature="0" />
  <path
     style="color:#000000;fill:#440000;fill-opacity:0.10286225;fill-rule:nonzero;stroke:none;stroke-width:1;marker:none;visibility:visible;display:inline;overflow:visible;enable-background:accumulate;opacity:1;stroke-linecap:butt;stroke-linejoin:miter;stroke-miterlimit:4;stroke-dasharray:none;stroke-dashoffset:0;stroke-opacity:1"
     d="M 3,2 5,4 5,6 3,6 z"
     id="rect3143"
     inkscape:connector-curvature="0"
     sodipodi:nodetypes="ccccc" />
  <g
     id="g3866"
     transform="translate(-1.4999996,2)"
     style="opacity:1;fill:#440000;fill-opacity:0.10286225;stroke:none;stroke-width:1;stroke-linecap:butt;stroke-linejoin:miter;stroke-miterlimit:4;stroke-dasharray:none;stroke-dashoffset:0;stroke-opacity:1;marker:none">
    <path
       sodipodi:nodetypes="ccccc"
       inkscape:connector-curvature="0"
       id="rect3858"
       d="m 57,13 0,1 -39,0 0,-1 z"
       style="color:#000000;fill:#440000;fill-opacity:0.10286225;fill-rule:nonzero;stroke:none;stroke-width:1;marker:none;visibility:visible;display:inline;overflow:visible;enable-background:accumulate;stroke-linecap:butt;stroke-linejoin:miter;stroke-miterlimit:4;stroke-dasharray:none;stroke-dashoffset:0;stroke-opacity:1" />
    <path
       sodipodi:nodetypes="ccccc"
       inkscape:connector-curvature="0"
       id="rect3818"
       d="m 57,53 0,1 -39,0 0,-1 z"
       style="color:#000000;fill:#440000;fill-opacity:0.10286225;fill-rule:nonzero;stroke:none;stroke-width:1;marker:none;visibility:visible;display:inline;overflow:visible;enable-background:accumulate;stroke-linecap:butt;stroke-linejoin:miter;stroke-miterlimit:4;stroke-dasharray:none;stroke-dashoffset:0;stroke-opacity:1" />
    <path
       sodipodi:nodetypes="ccccc"
       inkscape:connector-curvature="0"
       id="rect3860"
       d="m 57,13 0,-1 -39,0 0,1 z"
       style="color:#000000;fill:#440000;fill-opacity:0.10286225;fill-rule:nonzero;stroke:none;stroke-width:1;marker:none;visibility:visible;display:inline;overflow:visible;enable-background:accumulate;stroke-linecap:butt;stroke-linejoin:miter;stroke-miterlimit:4;stroke-dasharray:none;stroke-dashoffset:0;stroke-opacity:1" />
    <path
       sodipodi:nodetypes="ccccc"
       inkscape:connector-curvature="0"
       id="rect3799"
       d="m 57,53 0,-1 -39,0 0,1 z"
       style="color:#000000;fill:#440000;fill-opacity:0.10286225;fill-rule:nonzero;stroke:none;stroke-width:1;marker:none;visibility:visible;display:inline;overflow:visible;enable-background:accumulate;stroke-linecap:butt;stroke-linejoin:miter;stroke-miterlimit:4;stroke-dasharray:none;stroke-dashoffset:0;stroke-opacity:1" />
  </g>
  <rect
     style="color:#000000;fill:#0d7de5;fill-opacity:1;fill-rule:nonzero;stroke:none;stroke-width:1.06597185;marker:none;visibility:visible;display:inline;overflow:visible;enable-background:accumulate"
     id="rect3835"
     width="2"
     height="13"
     x="62"
     y="-35"
     rx="0"
     ry="0"
     transform="scale(1,-1)" />
  <rect
     style="color:#000000;fill:#51bf20;fill-opacity:1;fill-rule:nonzero;stroke:none;stroke-width:1.06597185;marker:none;visibility:visible;display:inline;overflow:visible;enable-background:accumulate"
     id="rect3838"
     width="2"
     height="12"
     x="62"
     y="35"
     rx="0"
     ry="0" />
  <rect
     style="color:#000000;fill:#f0c508;fill-opacity:1;fill-rule:nonzero;stroke:none;stroke-width:1.06597185;marker:none;visibility:visible;display:inline;overflow:visible;enable-background:accumulate"
     id="rect3840"
     width="2"
     height="11"
     x="62"
     y="-58"
     rx="0"
     ry="0"
     transform="scale(1,-1)" />
  <path
     style="font-size:41.93856812px;font-style:normal;font-variant:normal;font-weight:bold;font-stretch:normal;line-height:125%;letter-spacing:0px;word-spacing:0px;fill:#440000;fill-opacity:0.10286225;stroke:none;font-family:Oxygen;-inkscape-font-specification:Oxygen Bold;opacity:1;stroke-width:1;stroke-linecap:butt;stroke-linejoin:miter;stroke-miterlimit:4;stroke-dasharray:none;stroke-dashoffset:0;stroke-opacity:1;marker:none"
     d="m 28.6875,24.46875 0,21.09375 1,0 0,-20.09375 3.375,0 c 3.558574,2.4e-5 6.25284,0.770357 8.09375,2.3125 -0.229573,-0.285862 -0.481232,-0.569607 -0.75,-0.8125 -1.843022,-1.679156 -4.630455,-2.499974 -8.34375,-2.5 l -3.375,0 z m 16.90625,0.5 c 0.838894,0.956175 1.536654,2.043274 2.0625,3.3125 0.805432,1.897631 1.218721,4.095474 1.21875,6.59375 -2.9e-5,4.846427 -1.484776,8.597596 -4.40625,11.21875 C 41.547227,48.70126 37.517794,50 32.34375,50 l -8.21875,0 0,1 9.21875,0 c 5.174044,0 9.203477,-1.29874 12.125,-3.90625 2.921474,-2.621154 4.406221,-6.372323 4.40625,-11.21875 -2.9e-5,-2.498276 -0.413318,-4.696119 -1.21875,-6.59375 -0.721797,-1.742189 -1.750877,-3.160141 -3.0625,-4.3125 z"
     id="text3900"
     inkscape:connector-curvature="0" />
  <path
     style="fill:#b33935;fill-opacity:1;fill-rule:nonzero"
     d="M 0,7 0,10 2,8 Z"
     id="path4298"
     inkscape:connector-curvature="0"
     sodipodi:nodetypes="cccc" />
</svg>

<svg xmlns="http://www.w3.org/2000/svg" viewBox="0 0 64 64"><g color="#000"><path d="m0 8v26 28l2 2h58l2-2v-12-14-14h2v-14h-32z" fill="#c33329"/><path d="m2 0l-2 1v7h32 32v-7l-2-1h-30z" fill="#ff7153"/><path d="m3 2v2h58v2h3v-2-2h-61" fill="#a73434"/></g><text x="19.884" y="50" fill="#fff" font-family="Oxygen" word-spacing="0" line-height="125%" fill-opacity=".89" font-weight="bold" letter-spacing="0" font-size="41.939"><tspan x="19.884" y="50">D</tspan></text><path d="m64 10l-2-2 2-1z" fill="#e0523f" fill-opacity="1"/><g color="#000"><path d="m2.5 0l-2.5 1v2.344 4.656 26 28l2.5 2h9.5v-56-8z" fill="#550b1b" fill-opacity=".565"/><path d="m3 4h58v2h-58z" fill="#f8e9e8" fill-opacity="1"/><g fill="#400" fill-opacity=".103"><path d="m3 2l2 2v2h-2z"/><g transform="translate(-1.5 2)"><path d="m57 13v1h-39v-1z"/><path d="m57 53v1h-39v-1z"/><path d="m57 13v-1h-39v1z"/><path d="m57 53v-1h-39v1z"/></g></g><g fill-opacity="1"><path transform="scale(1-1)" fill="#0d7de5" d="m62-35h2v13h-2z"/><path fill="#51bf20" d="m62 35h2v12h-2z"/><path transform="scale(1-1)" fill="#f0c508" d="m62-58h2v11h-2z"/></g></g><path d="m28.688 24.469v21.09h1v-20.09h3.375c3.559 0 6.253.77 8.094 2.313-.23-.286-.481-.57-.75-.813-1.843-1.679-4.63-2.5-8.344-2.5h-3.375m16.906.5c.839.956 1.537 2.043 2.063 3.313.805 1.898 1.219 4.095 1.219 6.594 0 4.846-1.485 8.598-4.406 11.219-2.922 2.608-6.951 3.906-12.12 3.906h-8.219v1h9.219c5.174 0 9.203-1.299 12.13-3.906 2.921-2.621 4.406-6.372 4.406-11.219 0-2.498-.413-4.696-1.219-6.594-.722-1.742-1.751-3.16-3.063-4.313" fill-opacity=".103" fill="#400"/><path d="m0 7v3l2-2" fill="#b33935" fill-opacity="1"/></svg>
